school/img/country/HT.svg

<svg width="13" height="12" viewBox="0 0 13 12" fill="none" xmlns="http://www.w3.org/2000/svg">
<rect width="13" height="12" rx="2" fill="white"/>
<mask id="mask0" mask-type="alpha" maskUnits="userSpaceOnUse" x="0" y="0" width="13" height="12">
<rect width="13" height="12" rx="2" fill="white"/>
</mask>
<g mask="url(#mask0)">
<path fill-rule="evenodd" clip-rule="evenodd" d="M0 5.6H13V0H0V5.6Z" fill="#112EBC"/>
<path fill-rule="evenodd" clip-rule="evenodd" d="M0 12H13V5.60004H0V12Z" fill="#E3264A"/>
<rect x="4.33325" y="4" width="4.33333" height="4.8" rx="0.666667" fill="url(#paint0_linear)"/>
<mask id="mask1" mask-type="alpha" maskUnits="userSpaceOnUse" x="4" y="4" width="5" height="5">
<rect x="4.33325" y="4" width="4.33333" height="4.8" rx="0.666667" fill="white"/>
</mask>
<g mask="url(#mask1)">
<path d="M4.66659 8.46668V8.18149L5.09159 7.90687C5.46894 7.66305 5.90866 7.53335 6.35793 7.53335H6.64191C7.09118 7.53335 7.5309 7.66305 7.90825 7.90687L8.33325 8.18149V8.46668H4.66659Z" fill="#AABCAE" stroke="#366C14" stroke-width="0.666667"/>
<path fill-rule="evenodd" clip-rule="evenodd" d="M6.49998 7.19999C7.01282 7.19999 7.42855 6.66273 7.42855 5.99999C7.42855 5.33725 7.01282 4.79999 6.49998 4.79999C5.98715 4.79999 5.57141 5.33725 5.57141 5.99999C5.57141 6.66273 5.98715 7.19999 6.49998 7.19999Z" fill="#D4B872"/>
<path d="M5.7027 7.25529L5.80394 7.35995C6.1845 7.75339 6.81528 7.75339 7.19584 7.35995L7.29708 7.25529C7.44875 7.09848 7.71418 7.20585 7.71418 7.424C7.71418 7.55803 7.60553 7.66667 7.4715 7.66667H5.52828C5.39425 7.66667 5.2856 7.55803 5.2856 7.424C5.2856 7.20585 5.55103 7.09848 5.7027 7.25529Z" fill="#C28321" stroke="#0D3488" stroke-width="0.666667"/>
<path fill-rule="evenodd" clip-rule="evenodd" d="M5.9872 5.33732C5.81768 5.11824 5.97382 4.79999 6.25082 4.79999H6.74914C7.02614 4.79999 7.18228 5.11824 7.01276 5.33732L6.76361 5.6593C6.63016 5.83176 6.3698 5.83176 6.23636 5.65931L5.9872 5.33732Z" fill="#216C30"/>
</g>
</g>
<defs>
<linearGradient id="paint0_linear" x1="4.33325" y1="4" x2="4.33325" y2="8.8" gradientUnits="userSpaceOnUse">
<stop stop-color="white"/>
<stop offset="1" stop-color="#F0F0F0"/>
</linearGradient>
</defs>
</svg>

<svg width="13" height="12" fill="none" xmlns="http://www.w3.org/2000/svg"><rect width="13" height="12" rx="2" fill="#fff"/><mask id="a" maskUnits="userSpaceOnUse" x="0" y="0" width="13" height="12"><rect width="13" height="12" rx="2" fill="#fff"/></mask><g mask="url(#a)"><path fill-rule="evenodd" clip-rule="evenodd" d="M0 5.6h13V0H0v5.6z" fill="#112EBC"/><path fill-rule="evenodd" clip-rule="evenodd" d="M0 12h13V5.6H0V12z" fill="#E3264A"/><rect x="4.333" y="4" width="4.333" height="4.8" rx=".667" fill="url(#paint0_linear)"/><mask id="b" maskUnits="userSpaceOnUse" x="4" y="4" width="5" height="5"><rect x="4.333" y="4" width="4.333" height="4.8" rx=".667" fill="#fff"/></mask><g mask="url(#b)"><path d="M4.667 8.467V8.18l.425-.274a2.333 2.333 0 011.266-.374h.284c.45 0 .889.13 1.266.374l.425.274v.286H4.667z" fill="#AABCAE" stroke="#366C14" stroke-width=".667"/><path fill-rule="evenodd" clip-rule="evenodd" d="M6.5 7.2c.513 0 .929-.537.929-1.2 0-.663-.416-1.2-.929-1.2-.513 0-.929.537-.929 1.2 0 .663.416 1.2.929 1.2z" fill="#D4B872"/><path d="M5.703 7.255l.1.105a.968.968 0 001.393 0l.101-.105a.243.243 0 11.175.412H5.527a.243.243 0 11.175-.412z" fill="#C28321" stroke="#0D3488" stroke-width=".667"/><path fill-rule="evenodd" clip-rule="evenodd" d="M5.987 5.337a.333.333 0 01.264-.537h.498c.277 0 .433.318.264.537l-.25.322a.333.333 0 01-.527 0l-.249-.322z" fill="#216C30"/></g></g><defs><linearGradient id="paint0_linear" x1="4.333" y1="4" x2="4.333" y2="8.8" gradientUnits="userSpaceOnUse"><stop stop-color="#fff"/><stop offset="1" stop-color="#F0F0F0"/></linearGradient></defs></svg>
